images/facebook.svg

<svg width="50" height="50" viewBox="0 0 50 50" fill="none" xmlns="http://www.w3.org/2000/svg">
<path d="M41.0568 49.144C30.3631 50.2853 19.6369 50.2853 8.94318 49.144C4.67911 48.6889 1.31111 45.3209 0.856018 41.0564C-0.285339 30.3627 -0.285339 19.6369 0.856018 8.94318C1.31111 4.67911 4.67911 1.31111 8.94318 0.856018C19.6369 -0.285339 30.3627 -0.285339 41.0564 0.856018C45.3209 1.31111 48.6889 4.67911 49.144 8.94318C50.2853 19.6369 50.2853 30.3627 49.144 41.0564C48.6889 45.3209 45.3213 48.6889 41.0568 49.144Z" fill="url(#paint0_linear)"/>
<path d="M46.4245 10.7517C46.0209 6.96793 43.0325 3.97912 39.2483 3.57514C29.7588 2.56272 20.2412 2.56272 10.7517 3.57514C6.96793 3.97912 3.97912 6.96793 3.57514 10.7517C2.56272 20.2412 2.56272 29.7588 3.57514 39.2479C3.97912 43.0321 6.96793 46.0209 10.7517 46.4245C20.2412 47.4373 29.7588 47.4373 39.2479 46.4245C43.0321 46.0209 46.0209 43.0321 46.4245 39.2479C47.4373 29.7588 47.4373 20.2412 46.4245 10.7517Z" fill="url(#paint1_linear)"/>
<path d="M0.749207 40.02C0.783539 40.3656 0.819016 40.7112 0.856018 41.0568C1.31111 45.3209 4.67911 48.6889 8.94356 49.144C19.6373 50.2853 30.3631 50.2853 41.0568 49.144C45.3213 48.6889 48.6889 45.3209 49.144 41.0568C49.181 40.7112 49.2165 40.3656 49.2512 40.02H0.749207Z" fill="url(#paint2_linear)"/>
<path d="M33.6147 8.3271C29.2583 8.3271 25.7271 11.8587 25.7271 16.2151V22.1069H21.4821V29.4018L25.7271 33.2039V49.9977C30.8395 49.9729 35.9516 49.6887 41.0568 49.144C45.3213 48.6889 48.6889 45.3209 49.144 41.0564C49.9931 33.0997 50.2102 25.1255 49.7955 17.1597L40.963 8.3271H33.6147Z" fill="url(#paint3_linear)"/>
<path d="M25.7271 49.9977C28.6404 49.9836 31.5533 49.8848 34.465 49.7017V29.4018H40.2626L40.963 22.1069H34.465V17.4747C34.465 16.4516 35.2943 15.6223 36.3174 15.6223H40.963V8.3271H33.6147C29.2583 8.3271 25.7271 11.8587 25.7271 16.2151V22.1069H21.4821V29.4018H25.7271V49.9977Z" fill="white"/>
<defs>
<linearGradient id="paint0_linear" x1="16.601" y1="7.02991" x2="29.2474" y2="34.0874" gradientUnits="userSpaceOnUse">
<stop stop-color="#3457A0"/>
<stop offset="1" stop-color="#3B5998"/>
</linearGradient>
<linearGradient id="paint1_linear" x1="34.4847" y1="31.5169" x2="-9.22343" y2="1.48519" gradientUnits="userSpaceOnUse">
<stop stop-color="#3457A0" stop-opacity="0"/>
<stop offset="1" stop-color="#1F3F77"/>
</linearGradient>
<linearGradient id="paint2_linear" x1="25" y1="41.7845" x2="25" y2="48.5505" gradientUnits="userSpaceOnUse">
<stop stop-color="#3457A0" stop-opacity="0"/>
<stop offset="1" stop-color="#1F3F77"/>
</linearGradient>
<linearGradient id="paint3_linear" x1="57.4002" y1="41.2919" x2="22.696" y2="23.7928" gradientUnits="userSpaceOnUse">
<stop stop-color="#3457A0" stop-opacity="0"/>
<stop offset="0.3251" stop-color="#2A4C8D" stop-opacity="0.32549"/>
<stop offset="0.7045" stop-color="#22427D" stop-opacity="0.705882"/>
<stop offset="1" stop-color="#1F3F77"/>
</linearGradient>
</defs>
</svg>

<svg width="50" height="50" fill="none" xmlns="http://www.w3.org/2000/svg"><path d="M41.057 49.144a151.029 151.029 0 01-32.114 0 9.104 9.104 0 01-8.087-8.088 151.018 151.018 0 010-32.113A9.104 9.104 0 018.943.856a151.018 151.018 0 0132.113 0 9.104 9.104 0 018.088 8.087 151.025 151.025 0 010 32.113 9.104 9.104 0 01-8.087 8.088z" fill="url(#paint0_linear)"/><path d="M46.425 10.752a8.079 8.079 0 00-7.177-7.177 134.062 134.062 0 00-28.496 0 8.08 8.08 0 00-7.177 7.177 134.058 134.058 0 000 28.496 8.079 8.079 0 007.177 7.177 134.008 134.008 0 0028.496 0 8.078 8.078 0 007.177-7.177 134.008 134.008 0 000-28.496z" fill="url(#paint1_linear)"/><path d="M.75 40.02c.034.346.069.691.106 1.037a9.104 9.104 0 008.088 8.087 151.025 151.025 0 0032.113 0 9.104 9.104 0 008.087-8.087c.037-.346.073-.691.107-1.037H.75z" fill="url(#paint2_linear)"/><path d="M33.615 8.327a7.888 7.888 0 00-7.888 7.888v5.892h-4.245v7.295l4.245 3.802v16.794a151.352 151.352 0 0015.33-.854 9.104 9.104 0 008.087-8.088c.85-7.956 1.066-15.93.651-23.896l-8.832-8.833h-7.348z" fill="url(#paint3_linear)"/><path d="M25.727 49.998c2.913-.014 5.826-.113 8.738-.296v-20.3h5.798l.7-7.295h-6.498v-4.632c0-1.023.83-1.853 1.852-1.853h4.646V8.327h-7.348a7.888 7.888 0 00-7.888 7.888v5.892h-4.245v7.295h4.245v20.596z" fill="#fff"/><defs><linearGradient id="paint0_linear" x1="16.601" y1="7.03" x2="29.247" y2="34.087" gradientUnits="userSpaceOnUse"><stop stop-color="#3457A0"/><stop offset="1" stop-color="#3B5998"/></linearGradient><linearGradient id="paint1_linear" x1="34.485" y1="31.517" x2="-9.223" y2="1.485" gradientUnits="userSpaceOnUse"><stop stop-color="#3457A0" stop-opacity="0"/><stop offset="1" stop-color="#1F3F77"/></linearGradient><linearGradient id="paint2_linear" x1="25" y1="41.785" x2="25" y2="48.55" gradientUnits="userSpaceOnUse"><stop stop-color="#3457A0" stop-opacity="0"/><stop offset="1" stop-color="#1F3F77"/></linearGradient><linearGradient id="paint3_linear" x1="57.4" y1="41.292" x2="22.696" y2="23.793" gradientUnits="userSpaceOnUse"><stop stop-color="#3457A0" stop-opacity="0"/><stop offset=".325" stop-color="#2A4C8D" stop-opacity=".325"/><stop offset=".705" stop-color="#22427D" stop-opacity=".706"/><stop offset="1" stop-color="#1F3F77"/></linearGradient></defs></svg>
